icon-themes/sifr_svg/cmd/lc_dataarearefresh.svg

<svg viewBox="0 0 24 24" xmlns="http://www.w3.org/2000/svg"><path d="m2 3v19h12.148438l-.574219-.574219c-.403983-.403918-.574219-.926684-.574219-1.425781h-3v-3h4v1h1v-1-1-3h2.148438l1-1h-3.148438v-3h5v2h.851562l1.148438 1.148438v-9.148438zm2 2h5v3h-5zm6 0h4v3h-4zm5 0h5v3h-5zm-11 4h5v3h-5zm6 0h4v3h-4zm9.5625 3-2.28125 2.28125c-.18821.18818-.28125.45346-.28125.71875v1h1c.26531.00004.53057-.09314.71875-.28125l.28125-.28125v2.5625h2v-2.5625l.28125.28125c.18817.18815.45345.28125.71875.28125h1v-1c-.00003-.26531-.09311-.53058-.28125-.71875l-2.28125-2.28125zm-15.5625 1h5v3h-5zm6 0h4v3h-4zm-6 4h5v3h-5zm12 0v2.5625l-.28125-.28125c-.18818-.18811-.45344-.28129-.71875-.28125h-1v1c0 .26529.09304.53057.28125.71875l2.28125 2.28125h.875l2.28125-2.28125c.18814-.18817.28122-.45344.28125-.71875v-1h-1c-.2653 0-.53058.0931-.71875.28125l-.28125.28125v-2.5625zm5 2v1c-.000056.499125-.170429 1.021927-.574219 1.425781l-.574219.574219h2.148438v-3z" fill="#555753"/></svg>

<svg xmlns="http://www.w3.org/2000/svg" viewBox="0 0 24 24">
  <path
     style="fill:#555753"
     d="M 2 3 L 2 22 L 14.148438 22 L 13.574219 21.425781 C 13.170236 21.021863 13 20.499097 13 20 L 10 20 L 10 17 L 14 17 L 14 18 L 15 18 L 15 17 L 15 16 L 15 13 L 17.148438 13 L 18.148438 12 L 15 12 L 15 9 L 20 9 L 20 11 L 20.851562 11 L 22 12.148438 L 22 3 L 2 3 z M 4 5 L 9 5 L 9 8 L 4 8 L 4 5 z M 10 5 L 14 5 L 14 8 L 10 8 L 10 5 z M 15 5 L 20 5 L 20 8 L 15 8 L 15 5 z M 4 9 L 9 9 L 9 12 L 4 12 L 4 9 z M 10 9 L 14 9 L 14 12 L 10 12 L 10 9 z M 19.5625 12 L 17.28125 14.28125 C 17.09304 14.46943 17 14.73471 17 15 L 17 16 L 18 16 C 18.26531 16.00004 18.53057 15.90686 18.71875 15.71875 L 19 15.4375 L 19 18 L 21 18 L 21 15.4375 L 21.28125 15.71875 C 21.46942 15.9069 21.7347 16 22 16 L 23 16 L 23 15 C 22.99997 14.73469 22.90689 14.46942 22.71875 14.28125 L 20.4375 12 L 19.5625 12 z M 4 13 L 9 13 L 9 16 L 4 16 L 4 13 z M 10 13 L 14 13 L 14 16 L 10 16 L 10 13 z M 4 17 L 9 17 L 9 20 L 4 20 L 4 17 z M 16 17 L 16 19.5625 L 15.71875 19.28125 C 15.53057 19.09314 15.26531 18.99996 15 19 L 14 19 L 14 20 C 14 20.26529 14.09304 20.53057 14.28125 20.71875 L 16.5625 23 L 17.4375 23 L 19.71875 20.71875 C 19.90689 20.53058 19.99997 20.26531 20 20 L 20 19 L 19 19 C 18.7347 19 18.46942 19.0931 18.28125 19.28125 L 18 19.5625 L 18 17 L 16 17 z M 21 19 L 21 20 C 20.999944 20.499125 20.829571 21.021927 20.425781 21.425781 L 19.851562 22 L 22 22 L 22 19 L 21 19 z "
     />
</svg>
